/* XPM */
static char *_8a9a878d4fe41a7ad2766bfcb58b144bVmSiB7fftOtmgbJ[] = {
/* columns rows colors chars-per-pixel */
"42 42 114 2 ",
"   c None",
".  c #6A5622",
"X  c #6F5823",
"o  c #7C6223",
"O  c #5D2C7E",
"+  c #693777",
"@  c #6C3A75",
"#  c #61317B",
"$  c #713F72",
"%  c #76436F",
"&  c #7A476D",
"*  c #7D4A6B",
"=  c #734171",
"-  c #836523",
";  c #8B6B24",
":  c #937124",
">  c #997624",
",  c #9F7924",
"<  c #A47D24",
"1  c #945F5E",
"2  c #9B655B",
"3  c #9F6958",
"4  c #B37B4D",
"5  c #B97F4A",
"6  c #A36D56",
"7  c #A67054",
"8  c #AB7352",
"9  c #824E69",
"0  c #875366",
"q  c #895564",
"w  c #8E5962",
"e  c #835068",
"r  c #925D60",
"t  c #AB8225",
"y  c #B38725",
"u  c #B58925",
"i  c #BB8C25",
"p  c #C39325",
"a  c #CA9625",
"s  c #CD9926",
"d  c #C79429",
"f  c #CF9A2A",
"g  c #D29D26",
"h  c #D79F28",
"j  c #CD913F",
"k  c #D29832",
"l  c #DE9F37",
"z  c #D2963C",
"x  c #D6993A",
"c  c #DB9E38",
"v  c #D7A026",
"b  c #DCA326",
"n  c #DAA129",
"m  c #DEA034",
"M  c #E2A726",
"N  c #E5AA27",
"B  c #ECAD26",
"V  c #E0A52A",
"C  c #E4A828",
"Z  c #EDAC2E",
"A  c #F0AE2D",
"S  c #F4B227",
"D  c #FAB627",
"F  c #FEB927",
"G  c #F5B22B",
"H  c #FAB628",
"J  c #E6A633",
"K  c #E1A135",
"L  c #E1A235",
"P  c #E2A331",
"I  c #E8A731",
"U  c #E8A831",
"Y  c #E9A831",
"T  c #EBA930",
"R  c #EAAA30",
"E  c #EBAA30",
"W  c #ECAA30",
"Q  c #BC8447",
"!  c #BE8447",
"~  c #BA8149",
"^  c #BB8249",
"/  c #B9804A",
"(  c #BA804A",
")  c #BC8149",
"_  c #BF8348",
"`  c #C08546",
"'  c #C38B43",
"]  c #C68B43",
"[  c #C78B43",
"{  c #C78D42",
"}  c #C78E42",
"|  c #C18845",
" . c #C38944",
".. c #C28845",
"X. c #C68944",
"o. c #C48A44",
"O. c #C88B43",
"+. c #CA8F40",
"@. c #CC8F40",
"#. c #CB9040",
"$. c #CC9040",
"%. c #CD9040",
"&. c #CE9040",
"*. c #532383",
"=. c #572781",
"-. c #552582",
";. c #542483",
":. c #552583",
">. c #562583",
",. c #532384",
"<. c #552584",
"1. c #562584",
"2. c #582881",
"3. c #5A2A80",
/* pixels */
"                                                                                    ",
"                                                                                    ",
"                                                                                    ",
"                                                                                    ",
"                                                                                    ",
"                                                                                    ",
"                                                                                    ",
"                                                                                    ",
"                                                                                    ",
"                                                                                    ",
"                                ; : a < , i t ;                                     ",
"                            X p g : u : u p i y < o                                 ",
"                          u t > s i v s g S D B v y .                               ",
"                        u p p i D B s F b p M D F F b ;                             ",
"                      d V n D C H G h G G S g N D H D Z f                           ",
"                    3.* 5 l G 8 x 4 5 5 4 G c 4 ] 6 5 6 } w             <.          ",
"                    ,.= Z F L 6 z 8 4 5 4 c ' 2 Q 8 ^ 7 5 1                         ",
"                  ;.;._ F H Y G H J Y A Z I Z J Y Y Z Z Y J                         ",
"                  *.* G Z 6 * W H r * l 4 ^ Q = 4 5 0 L w 9 2 ,.    ;.              ",
"                ;.O o.D z q @ Z $.# 3 z z G w @ J l 8 j # 8 8 *.  ;.;.              ",
"                *.0 G x x 0 9 G q # 1 $.F @.O w  .Z Y 0 O 6 $ ;.  ;.;.              ",
"              ;.;.O.x 5 +.@ 1 $.# 0 O _ G e $ o.] H ` O 8 0 9       ;.;.            ",
"              ;.;.m  .G x O 3 9 & x # 6 $.O 4 H  .l * % Y 3 3.      ;.;.            ",
"            ;.;.  = ^ } 8 + e @ 3 G 0 q w = #.4 4 ^ + 8 G 8 ;.;.    ;.;.            ",
"          ;.;.;.    6 ` Y P k J Y H Z J J m P J G Y J Z G  .O ;.                    ",
"          ;.;.    <.w G F D s F F F F F F B M F F F F F F G O ;.                    ",
"                      S F F g B F F F F F S g D F F F F S       ;.;.                ",
"                      u D F B g F F F F F F g S F F F D p                           ",
"                        i D F g B F F F F F M M F F D a                             ",
"                          t B S s D F F F F S g F S i                               ",
"                            ; s g g F F F F F a s ,                                 ",
"                                - o y s s a y -                                     ",
"                                                                                    ",
"                                                                                    ",
"                                                                                    ",
"                                                                                    ",
"                                                                                    ",
"                                                                                    ",
"                                                                                    ",
"                                                                                    ",
"                                                                                    ",
"                                                                                    "
};
