/* XPM */
static char *_74e4a0d0f8f4e86bd27d6fa024f8e29W58dk2Lg0eNmCUtW[] = {
/* columns rows colors chars-per-pixel */
"42 42 163 2 ",
"   c None",
".  c #B38705",
"X  c #B68906",
"o  c #BB8D06",
"O  c #B48808",
"+  c #BC8E0B",
"@  c #BF9007",
"#  c #BF900C",
"$  c #B98E11",
"%  c #BB9013",
"&  c #C19107",
"*  c #C99605",
"=  c #CE9A07",
"-  c #C4940A",
";  c #C99709",
":  c #CC9A0B",
">  c #D29E0C",
",  c #C59610",
"<  c #C89710",
"1  c #C79813",
"2  c #CC9C13",
"3  c #CC9D1A",
"4  c #D19F11",
"5  c #D8A107",
"6  c #D6A10C",
"7  c #DCA50C",
"8  c #DFA80D",
"9  c #D4A213",
"0  c #DAA512",
"q  c #DEA913",
"w  c #D3A31B",
"e  c #D8A619",
"r  c #DCAA1D",
"t  c #E0A70A",
"y  c #E4AB0D",
"u  c #E9AE0D",
"i  c #EDB20E",
"p  c #F0B40F",
"a  c #E3AC13",
"s  c #E9AF10",
"d  c #E2AE1B",
"f  c #ECB213",
"g  c #E6B11C",
"h  c #EBB41B",
"j  c #F0B614",
"k  c #F0B719",
"l  c #F2B91B",
"z  c #CAA12A",
"x  c #D6A727",
"c  c #DDAC24",
"v  c #D5AA2F",
"b  c #DDAE2A",
"n  c #DFB12E",
"m  c #C8A033",
"M  c #E3B123",
"N  c #EAB623",
"B  c #EFB924",
"V  c #E3B32C",
"C  c #E8B629",
"Z  c #EDBA2C",
"A  c #F2BB25",
"S  c #F3BE2B",
"D  c #E1B333",
"F  c #E6B936",
"G  c #EDBC33",
"H  c #E1B73F",
"J  c #E4B83D",
"K  c #ECBE3D",
"L  c #F2BF33",
"P  c #F6C12B",
"I  c #F6C234",
"U  c #F1C23D",
"Y  c #F9C83C",
"T  c #DEB646",
"R  c #E5BA41",
"E  c #EABF45",
"W  c #E0B748",
"Q  c #E7BF52",
"!  c #EDC143",
"~  c #EEC34B",
"^  c #F2C644",
"/  c #F6C946",
"(  c #F9CB45",
")  c #F2C74C",
"_  c #FCCE4A",
"`  c #FFD24E",
"'  c #E7C055",
"]  c #EBC354",
"[  c #E5C25F",
"{  c #EDC65B",
"}  c #F3C750",
"|  c #F4C954",
" . c #F4CC5B",
".. c #F9D059",
"X. c #EDCB6C",
"o. c #F4CD65",
"O. c #F4CF6D",
"+. c #F5D06B",
"@. c #ECCC73",
"#. c #F0CE72",
"$. c #EED17E",
"%. c #F4D273",
"&. c #F4D47C",
"*. c #EDD187",
"=. c #F5D682",
"-. c #F7D986",
";. c #F1D58B",
":. c #F6D98C",
">. c #F4DA94",
",. c #F8DD95",
"<. c #F8DE9A",
"1. c #F8E09E",
"2. c #F5DFA1",
"3. c #F7E0A3",
"4. c #F9E2A3",
"5. c #F7E2AA",
"6. c #F9E5AD",
"7. c #F4E2B0",
"8. c #F8E6B5",
"9. c #FAE8B6",
"0. c #F7E7BD",
"q. c #FBEABC",
"w. c #FBEDC5",
"e. c #FCEFCD",
"r. c #FCF0CF",
"t. c #F6EDD3",
"y. c #FBF0D1",
"u. c #FCF0D0",
"i. c #FCF0D1",
"p. c #FCF1D3",
"a. c #FCF1D4",
"s. c #FDF1D4",
"d. c #FCF2D5",
"f. c #FCF2D4",
"g. c #FDF2D7",
"h. c #FDF2D7",
"j. c #FDF3D9",
"k. c #FDF3DA",
"l. c #FDF4DB",
"z. c #FDF4DD",
"x. c #FDF4DC",
"c. c #FDF5DF",
"v. c #FDF4DE",
"b. c #FDF4DC",
"n. c #FDF5E0",
"m. c #FDF6E3",
"M. c #FDF7E5",
"N. c #FEF7E5",
"B. c #FDF7E7",
"V. c #FDF8E8",
"C. c #FEF9EC",
"Z. c #FEF9ED",
"A. c #FEF8EA",
"S. c #FEFAF0",
"D. c #FEFBF3",
"F. c #FEFCF5",
"G. c #FFFDF7",
"H. c #FFFBF3",
"J. c #FFFDF8",
"K. c #FFFEFB",
"L. c #FFFFFE",
"P. c white",
"I. c white",
/* pixels */
"                                        < 2 > : : - #                               ",
"                                    > a f f f f f u y y 7 >                         ",
"                                : a k l j f i p p p p p i y ; +   : > 6 6           ",
"                              2 q h f i i f f s y y y 7 7 7 7 6 7 6 6 6 t e J E d ; ",
"                            2 r D D V c 0 0 0 7 7 7 7 7 7 7 y 9 r n Q &.+.6.4.4.b   ",
"& 6 8 y 7 : -         b ' =.8.y.e.g.N.k.5.K 7 7 7 7 a a J ~ %.=.1.w.g.e.-.D.6.Z :   ",
"      6 7 7 6 > > = > [ 7.t.7.O.U o.D.p.-.S M E ] =.A L p.e.m.| =.K.Z.+.A =.P.&.=   ",
"            : R >.;.X.D 0 e 6 5 s o.<.:. .%.e.k.g.4.f ,.x.x.4.%.w.<.4.q.=.,.Z.{ *   ",
"          : g +.r.P.N. .u G =.>.,.5.:.Z.p.m.N.e.m.o.-.x.w.x.6.,.4.O.%.3.0.3.] >     ",
"          & 0 :.K.l.) i +.e.F.9.x.6.g.p.g.g.g.q.g.q.e.e.q.q.6.2.*.o. ...^ g =       ",
"          ; #.K.V.} i | m.V.g.q.F.k.-.3.o.{ ! o.:.@.' H D M r 9 B _ ( C 9 -         ",
"          b g.P.=.i A w.<.w.&.&.@.J q 0 7 = 8 r q t t 8 0 0 6 y I Y S N r r w   : & ",
"          R D.P.,.L | 4.,.&.r ; 5 y f g y > 7 u i p p p j d 2 a P P A S A A A N g ; ",
"          c q.P.P.V.x.q.X.e     : y i l d u i p p p i y > 2 w 9 B B r Z L Z d 6 >   ",
"            b X.;.$.' c           3 0 a g a y y y 7 > 2 w r w   4 9     :           ",
"                                      3 w r g 6 9 e w 3 3                           ",
"                                          4 7 7 ; a C < o & : 9                     ",
"                                            > - - ; w - o * ; : : - o +             ",
"                                            9 & o > > 0 e w 3 < - - - o             ",
"                                              ; . : y h _ _ ( B a 0 ; -             ",
"                                              > X - i d ( ` ` B y y o o             ",
"                                              4 & o i s U ` ` N u y o o             ",
"                                                - o y i Z ` ` N i y o +             ",
"                                                : o y p N _ ` N i y o #             ",
"                                                  o 6 p A ^ _ g i y X o             ",
"                                                  & ; i A U ^ g p 7 X o             ",
"                                                  - - u l / F h p 7 X +             ",
"                                                  1 & 8 j ( F h p 7 X $             ",
"                                              , - : : : s G / N u 5 o +             ",
"                                            9 > X o & : y C ` S y : X o             ",
"                                          0 i 7 & o X ; 7 Z ^ B y : o & ; > 2       ",
"                                        a i y ; X . X - 8 P _ d y > o - & o +       ",
"                                      y i i 7 > : - & & > d ^ N u : - i i :         ",
"                                  9 y i i u i i i y 5 & 7 : < - - @ 6 p y +         ",
"                                0 i p i u i i i y i > o ; 5 y y 7 y i i ;           ",
"                              7 i i i i i i i u i y o o . . & ; ; ; 7 6             ",
"                            W I A f f i i i u i i ; o X . X o . . . : -             ",
"                            T ) / ~ / I B g f i 8 & X . X o X . . X #               ",
"                                    E ^ ~ | ( L x % . . o X . . . o $               ",
"                                            E ! ] ~ H v z $ O . X o                 ",
"                                                    ! E | ~ R v %                   ",
"                                                            ! ~ m                   "
};
